X:1
T:Cooley's Reel
L:1/8
M:4/4
I:linebreak $
K:D
V:1 treble 
V:1
 D |"Em" EBBA B2 EB | B2 AB dBAG |"D" FDAD BDAD | FDFA dAFD |"Em" EBBA B2 EB |$ B2 AB defg | %7
"D" afef dBAF |"Bm" DEFD"Em" E3 :: f |"Em" eB B2 eBgB | eBBf gedB |"D" A2 FA DAFB |$ %13
"D" (3(ABA) FA"Bm" defg |"Em" eB B2 eBgB | eBBe defg |"D" afef dBAF |"Bm" DEFD"Em" E3 :| %18
